Build/images/2_columns_66_33.svg

<svg xmlns="http://www.w3.org/2000/svg" width="86" height="128"><path fill="#FFF" d="M0 0h86v128H0z"/><path fill="#333" d="M44 30h40v68H44zM2 30h40v68H2zm0 80h26v16H2zm28 0h26v16H30zm28 0h26v16H58zM2 2h82v16H2zm0 98h82v8H2zm0-80h82v8H2z"/></svg>

<?xml version="1.0" encoding="UTF-8" standalone="no"?>
<!DOCTYPE svg PUBLIC "-//W3C//DTD SVG 1.1//EN" "http://www.w3.org/Graphics/SVG/1.1/DTD/svg11.dtd">
<svg width="100%" height="100%" viewBox="0 0 86 128" version="1.1" xmlns="http://www.w3.org/2000/svg" xmlns:xlink="http://www.w3.org/1999/xlink" xml:space="preserve" xmlns:serif="http://www.serif.com/" style="fill-rule:evenodd;clip-rule:evenodd;stroke-linejoin:round;stroke-miterlimit:2;">
    <rect x="0" y="0" width="86" height="128" style="fill:white;fill-rule:nonzero;"/>
    <path d="M44,30L84,30L84,98L44,98L44,30ZM2,30L44,30L44,98L2,98L2,30ZM2,110L28,110L28,126L2,126L2,110ZM30,110L56,110L56,126L30,126L30,110ZM58,110L84,110L84,126L58,126L58,110ZM2,2L84,2L84,18L2,18L2,2ZM2,100L84,100L84,108L2,108L2,100ZM2,20L84,20L84,28L2,28L2,20Z" style="fill:rgb(51,51,51);fill-rule:nonzero;"/>
    <rect id="Neue-Linie" serif:id="Neue Linie" x="55.591" y="29.781" width="2.205" height="69.702" style="fill:white;"/>
</svg>
